X: 3006
M: 3/4
L: 1/8
K: G
[|\
e3 f e2 | d3 c B2 | A4 e2 | e4 g2 |\
g2 G2 g2 | g4 a2 | g2 d2 e2 | d3 c B2 |\
cB cd ef | g2 d2 B2 | A4 e2 | e4 g2 |\


